icons/box-check.svg

<svg xmlns="http://www.w3.org/2000/svg" viewBox="0 0 24 24" fill="currentColor">
  <path d="M7 3.75C5.21421 3.75 3.75 5.21421 3.75 7v10c0 1.7858 1.46421 3.25 3.25 3.25.41421 0 .75.3358.75.75s-.33579.75-.75.75c-2.61421 0-4.75-2.1358-4.75-4.75V7c0-2.61421 2.13579-4.75 4.75-4.75h10c2.6142 0 4.75 2.13579 4.75 4.75v5c0 .4142-.3358.75-.75.75s-.75-.3358-.75-.75V7c0-1.78579-1.4642-3.25-3.25-3.25h-1.25V7.5c0 1.21421-1.0358 2.25-2.25 2.25h-3c-1.21421 0-2.25-1.03579-2.25-2.25V3.75H7Zm2.75 0V7.5c0 .38579.3642.75.75.75h3c.3858 0 .75-.36421.75-.75V3.75h-4.5Zm7.3883 11.328c.2883.2973.281.7722-.0164 1.0605l-3.2056 3.1086c-.0696.105-.1601.1889-.2562.248-.1774.1092-.3568.13-.4728.13-.2292 0-.5059-.0828-.7178-.2947l-.0377-.0377-1.232-1.6426c-.2485-.3314-.1813-.8015.1501-1.05.3313-.2485.8014-.1814 1.05.15l.8154 1.0873 2.8624-2.7757c.2974-.2884.7722-.2811 1.0606.0163Z"/>
</svg>

<svg width="24" height="24" viewBox="0 0 24 24" fill="none" xmlns="http://www.w3.org/2000/svg">
<path fill-rule="evenodd" clip-rule="evenodd" d="M7 3.75C5.21421 3.75 3.75 5.21421 3.75 7V17C3.75 18.7858 5.21421 20.25 7 20.25C7.41421 20.25 7.75 20.5858 7.75 21C7.75 21.4142 7.41421 21.75 7 21.75C4.38579 21.75 2.25 19.6142 2.25 17V7C2.25 4.38579 4.38579 2.25 7 2.25H9H15H17C19.6142 2.25 21.75 4.38579 21.75 7V12C21.75 12.4142 21.4142 12.75 21 12.75C20.5858 12.75 20.25 12.4142 20.25 12V7C20.25 5.21421 18.7858 3.75 17 3.75H15.75V7.5C15.75 8.71421 14.7142 9.75 13.5 9.75H10.5C9.28579 9.75 8.25 8.71421 8.25 7.5V3.75H7ZM9.75 3.75V7.5C9.75 7.88579 10.1142 8.25 10.5 8.25H13.5C13.8858 8.25 14.25 7.88579 14.25 7.5V3.75H9.75ZM17.1383 15.078C17.4266 15.3753 17.4193 15.8502 17.1219 16.1385L13.9163 19.2471C13.8467 19.3521 13.7562 19.436 13.6601 19.4951C13.4827 19.6043 13.3033 19.6251 13.1873 19.6251C12.9581 19.6251 12.6814 19.5423 12.4695 19.3304L12.4318 19.2927L11.1998 17.6501C10.9513 17.3187 11.0185 16.8486 11.3499 16.6001C11.6812 16.3516 12.1513 16.4187 12.3999 16.7501L13.2153 17.8374L16.0777 15.0617C16.3751 14.7733 16.8499 14.7806 17.1383 15.078Z" fill="black"/>
</svg>
